packages/calcite-ui-icons/icons/parameters-plus-32.svg

<?xml version="1.0" encoding="UTF-8"?><svg id="icons" xmlns="http://www.w3.org/2000/svg" viewBox="0 0 32 32"><defs><style>.cls-1{fill:none;}</style></defs><rect class="cls-1" width="32" height="32"/><path d="M30,24v.99902h-5v5.00098h-1v-5.00098h-5v-.99902h5v-5h1v5h5ZM24.5,5H7.5c-3.03223,0-5.49,2.46777-5.49,5.5l-.01,11c0,3.03223,2.46777,5.5,5.5,5.5h10.5v-1H7.5c-2.48145,0-4.5-2.01855-4.5-4.5v-11c0-2.48145,2.01855-4.5,4.5-4.5h17c2.48145,0,4.5,2.01855,4.5,4.5v11.5h1v-11.5c0-3.03223-2.46777-5.5-5.5-5.5ZM19.89062,9.65723c.86523,1.0625,1.20215,2.44922.92187,3.80371-.42187,2.05078-2.33886,3.53906-4.55859,3.53906h-3.25391v6.90332h-1v-15.90332h4.42871c1.3418,0,2.60352.60352,3.46191,1.65723ZM19.11523,10.28906c-.66797-.81934-1.64648-1.28906-2.68652-1.28906h-3.42871v7h3.25391c1.74707,0,3.25293-1.15234,3.58008-2.74023.21777-1.05957-.04395-2.14258-.71875-2.9707Z"/></svg>

<svg xmlns="http://www.w3.org/2000/svg" viewBox="0 0 32 32"><path fill="none" d="M0 0h32v32H0z"/><path d="M30 24v.999h-5V30h-1v-5.001h-5V24h5v-5h1v5h5zM24.5 5h-17c-3.032 0-5.49 2.468-5.49 5.5L2 21.5C2 24.532 4.468 27 7.5 27H18v-1H7.5A4.505 4.505 0 0 1 3 21.5v-11C3 8.019 5.019 6 7.5 6h17c2.481 0 4.5 2.019 4.5 4.5V22h1V10.5C30 7.468 27.532 5 24.5 5zm-4.61 4.657a4.541 4.541 0 0 1 .922 3.804C20.391 15.51 18.474 17 16.254 17H13v6.903h-1V8h4.429c1.342 0 2.603.604 3.462 1.657zm-.775.632A3.458 3.458 0 0 0 16.43 9H13v7h3.254c1.747 0 3.253-1.152 3.58-2.74a3.55 3.55 0 0 0-.719-2.97z"/></svg>
